X:3    
T:La grand bete
C:Trad Berry (F)
I:Airs nouveaux pour danses anciennes
Q:1/4=108    
M:4/4    
K:F
D/E/F/G/ AA G/A/B/G/ A2 |F/A/G/F/ E/G/F/E/ D/E/F/G/ AA |D/E/F/G/ AA G/A/B/G/ A2 |c=B AG E/G/F/E/ D2 :|
A2 d2 ^c/d/e/c/ d2 |A/B/c/A/ c/B/A/G/ F/E/F/G/ AF |A2 d2 ^c/d/e/c/ d2 |A/B/c/A/ c/B/A/G/ F/G/F/E/ D2:|
